X:1
T:Title
%%score { 1 | ( 2 3 ) }
L:1/8
M:4/4
K:Ab
V:1 treble nm="Grand Piano"
V:2 bass 
V:3 bass 
V:1
 z4 z2[Q:1/4=110] [CE]2 | [EA]2 [Ec]2 [DB]2 [DB]2 | [CA]6 B2 | c2 B2 c2 [EA]2 | [EB]6 [G,E]2 | %5
 [A,EA]2 [Ec]2 B2 d2 | c6 [CEA]2 | [EG]2 [GB]2 [FA]2 [=DF]2 | E6 E2 | B2 E2 B2 d2 | c2 A2 c2 e2 | %11
 d2 c2 B2 A2 | [Ec]2 [FB]2 B2 E2 | e3 d c2 B2 | cBAB c2 [Fd]2 | [Ec]4 [DB]4 |[M:3/4] [CA]6 |] %17
V:2
 z4 z2 [A,,A,]2 | [C,A,]2 [A,,A,]2 [D,F,]2 [E,G,]2 | [A,,A,]6 [E,G,E]2 | %3
 [A,E]2 [E,G,E]2 [A,E]2 [C,A,]2 | [E,G,]6 E,D, | C,2 [A,,A,]2 [E,G,E]2 [E,B,E]2 | [A,E]6 A,,2 | %7
 [B,,B,]2 [B,,B,]2 [B,,B,]2 [B,,A,]2 | [E,G,]6 [E,G,]2 | [E,G,E]2 [E,G,]2 [E,G,E]2 [E,B,E]2 | %10
 [A,E]2 [A,CE]2 [A,EA]2 [A,CE]2 | [G,B,E]2[K:bass] [A,E]2 [E,G,D]2 [F,A,C]2 | %12
 [C,A,]2 [=D,A,]2 [E,G,E]2 [G,B,]2 | E6 z2 | .E2 z2 z4 | [E,A,]4 [E,G,]4 |[M:3/4] [A,,A,]6 |] %17
V:3
 x8 | x8 | x8 | x8 | x8 | x8 | x8 | x8 | x8 | x8 | x8 | x2[K:bass] x6 | x8 | %13
 [A,C]3 [G,B,] A,2 [E,G,E]2 | A,-[A,-D][A,-C][A,-D] [A,E]2 [D,A,]2 | x8 |[M:3/4] x6 |] %17

